public/img/htmlcsswtf_line2.svg

<svg fill="none" height="38" viewBox="0 0 88 38" width="88" xmlns="http://www.w3.org/2000/svg"><path d="m82.036 6.74691c-9.3327-1.20539-18.8424-2.49726-28.2083-3.46417-10.2845-1.06175-21.0418-2.372937-31.4025-1.50714-7.6815.64191-16.43627 3.38304-20.08764 10.8874-1.734331 3.5644.40733 7.3495 2.93554 9.8639 2.95921 2.943 6.8 5.0689 10.5612 6.7821 5.7501 2.6191 11.8821 4.6757 18.0857 5.8936 9.4716 1.8595 19.609 1.2638 29.153.2924 3.1843-.3241 6.3203-.8111 9.4252-1.5971 3.7493-.9491 8.212-2.0892 11.4161-4.3864 8.0159-5.7473-2.8687-15.7317-7.9519-19.1205" stroke="#3dd7ac" stroke-linecap="round" stroke-linejoin="round" stroke-width="2"/></svg>

<svg width="88" height="38" viewBox="0 0 88 38" fill="none" xmlns="http://www.w3.org/2000/svg">
<path d="M82.036 6.74691C72.7033 5.54152 63.1936 4.24965 53.8277 3.28274C43.5432 2.22099 32.7859 0.909803 22.4252 1.7756C14.7437 2.41751 5.98893 5.15864 2.33756 12.663C0.603229 16.2274 2.74489 20.0125 5.2731 22.5269C8.23231 25.4699 12.0731 27.5958 15.8343 29.309C21.5844 31.9281 27.7164 33.9847 33.92 35.2026C43.3916 37.0621 53.529 36.4664 63.073 35.495C66.2573 35.1709 69.3933 34.6839 72.4982 33.8979C76.2475 32.9488 80.7102 31.8087 83.9143 29.5115C91.9302 23.7642 81.0456 13.7798 75.9624 10.391" stroke="#3DD7AC" stroke-width="2" stroke-linecap="round" stroke-linejoin="round"/>
</svg>
